DuckDuckGo/AppTP.xcassets/AppTPRadar.imageset/Radar-128.svg

<svg width="128" height="96" viewBox="0 0 128 96" fill="none" xmlns="http://www.w3.org/2000/svg">
<path opacity="0.2" d="M105.629 38.1999L107.171 37.7999C107.457 37.7428 107.743 37.4571 107.8 37.1713L108.2 35.6285C108.314 35.2285 108.657 34.9999 109 34.9999C109.4 34.9999 109.743 35.2856 109.8 35.6285L110.2 37.1713C110.257 37.4571 110.543 37.7428 110.829 37.7999L112.371 38.1999C112.771 38.3142 113 38.6571 113 38.9999C113 39.3999 112.714 39.7428 112.371 39.7999L110.829 40.1999C110.543 40.2571 110.257 40.5428 110.2 40.8285L109.8 42.3713C109.686 42.7713 109.343 42.9999 109 42.9999C108.6 42.9999 108.257 42.7142 108.2 42.3713L107.8 40.8285C107.743 40.5428 107.457 40.2571 107.171 40.1999L105.629 39.7999C105.229 39.6856 105 39.3428 105 38.9999C105 38.5999 105.286 38.2571 105.629 38.1999Z" fill="#888888"/>
<path opacity="0.2" d="M15.9428 31.7999L18.2571 31.1999C18.6857 31.1142 19.1143 30.6856 19.2 30.2571L19.8 27.9428C19.9714 27.3428 20.4857 26.9999 21 26.9999C21.6 26.9999 22.1143 27.4285 22.2 27.9428L22.8 30.2571C22.8857 30.6856 23.3143 31.1142 23.7429 31.1999L26.0572 31.7999C26.6572 31.9713 27 32.4856 27 32.9999C27 33.5999 26.5714 34.1142 26.0572 34.1999L23.7429 34.7999C23.3143 34.8856 22.8857 35.3142 22.8 35.7428L22.2 38.0571C22.0286 38.6571 21.5143 38.9999 21 38.9999C20.4 38.9999 19.8857 38.5713 19.8 38.0571L19.2 35.7428C19.1143 35.3142 18.6857 34.8856 18.2571 34.7999L15.9428 34.1999C15.3428 34.0285 15 33.5142 15 32.9999C15 32.3999 15.4286 31.8856 15.9428 31.7999Z" fill="#888888"/>
<path opacity="0.2" d="M0.628557 53.1999L2.17142 52.7999C2.45714 52.7428 2.74287 52.4571 2.80001 52.1713L3.19999 50.6285C3.31427 50.2285 3.65714 49.9999 4 49.9999C4.4 49.9999 4.74287 50.2856 4.80001 50.6285L5.19999 52.1713C5.25713 52.4571 5.54286 52.7428 5.82858 52.7999L7.37144 53.1999C7.77144 53.3142 8 53.6571 8 53.9999C8 54.3999 7.7143 54.7428 7.37144 54.7999L5.82858 55.1999C5.54286 55.2571 5.25713 55.5428 5.19999 55.8285L4.80001 57.3713C4.68573 57.7713 4.34286 57.9999 4 57.9999C3.6 57.9999 3.25713 57.7142 3.19999 57.3713L2.80001 55.8285C2.74287 55.5428 2.45714 55.2571 2.17142 55.1999L0.628557 54.7999C0.228557 54.6856 0 54.3428 0 53.9999C0 53.5999 0.2857 53.2571 0.628557 53.1999Z" fill="#888888"/>
<path opacity="0.2" d="M126.5 51.9999C125.675 51.9999 125 51.3249 125 50.4999C125 49.6749 125.675 48.9999 126.5 48.9999C127.325 48.9999 128 49.6749 128 50.4999C128 51.3249 127.325 51.9999 126.5 51.9999Z" fill="#888888"/>
<path opacity="0.2" d="M23 69.9999C21.9 69.9999 21 69.0999 21 67.9999C21 66.8999 21.9 65.9999 23 65.9999C24.1 65.9999 25 66.8999 25 67.9999C25 69.0999 24.1 69.9999 23 69.9999Z" fill="#888888"/>
<g clip-path="url(#clip0_4953_10559)">
<path d="M36 35C36 26.7157 42.7157 20 51 20H77C85.2843 20 92 26.7157 92 35V61C92 69.2843 85.2843 76 77 76H51C42.7157 76 36 69.2843 36 61V35Z" fill="#63C853"/>
<path d="M76.75 16H50.75C40.2566 16 32 24.5066 32 35V48V61C32 71.4934 40.2566 80 50.75 80H70.9303C73.0451 80 74.6397 78.0786 74.25 76L71.75 53H91.75C93.9591 53 95.75 51.2091 95.75 49V35C95.75 24.5066 87.2434 16 76.75 16Z" fill="#399F29"/>
<rect x="34" y="18" width="56" height="56" rx="12.6667" fill="#B3F1AA" stroke="#4CBA3C" stroke-width="4"/>
<circle cx="62" cy="46" r="23" fill="url(#paint0_angular_4953_10559)"/>
<path fill-rule="evenodd" clip-rule="evenodd" d="M50.7965 66.0916C45.4402 61.8806 42 55.342 42 48C42 35.2975 52.2975 25 65 25C69.0675 25 72.8883 26.0558 76.2035 27.9084C72.2927 24.8338 67.3605 23 62 23C49.2975 23 39 33.2975 39 46C39 54.6351 43.7586 62.1587 50.7965 66.0916Z" fill="#288419"/>
<path fill-rule="evenodd" clip-rule="evenodd" d="M91.4943 59C90.8456 58.9983 90.2282 59.2536 89.8028 59.6993C88.5479 61.0139 87.3729 61.8047 86.1072 62.2254C84.8456 62.6447 83.4043 62.7257 81.5536 62.483C80.9156 62.3994 80.2689 62.5708 79.7801 62.9533C79.2913 63.3357 79.008 63.8918 79.0032 64.4784C78.9485 71.1547 79.8927 75.2599 81.7411 78.1345C83.7225 81.216 86.6863 82.7782 90.0848 84.5697L90.1627 84.6107L90.1662 84.6126L90.1675 84.6133L90.3817 84.7262C91.074 85.0913 91.928 85.0913 92.6202 84.7262L92.835 84.613L92.8357 84.6126L92.84 84.6103L92.8408 84.6099L92.9171 84.5697C96.3157 82.7782 99.2795 81.216 101.261 78.1345C103.109 75.2598 104.053 71.1545 103.999 64.4779C103.994 63.8908 103.71 63.3344 103.221 62.9519C102.731 62.5695 102.084 62.3985 101.445 62.483C99.6125 62.7255 98.1767 62.6607 96.9151 62.2539C95.6422 61.8434 94.4527 61.0551 93.1814 59.7079C92.7588 59.2601 92.143 59.0017 91.4943 59Z" fill="#D9D9D9" stroke="#FAFAFA" stroke-width="12" stroke-linejoin="round"/>
<path fill-rule="evenodd" clip-rule="evenodd" d="M91.4943 59C90.8456 58.9983 90.2282 59.2536 89.8028 59.6993C88.5479 61.0139 87.3729 61.8047 86.1072 62.2254C84.8456 62.6447 83.4043 62.7257 81.5536 62.483C80.9156 62.3994 80.2689 62.5708 79.7801 62.9533C79.2913 63.3357 79.008 63.8918 79.0032 64.4784C78.9485 71.1547 79.8927 75.2599 81.7411 78.1345C83.7225 81.216 86.6863 82.7782 90.0848 84.5697L90.1627 84.6107L90.1662 84.6126L90.1675 84.6133L90.3817 84.7262C91.074 85.0913 91.928 85.0913 92.6202 84.7262L92.835 84.613L92.8357 84.6126L92.84 84.6103L92.8408 84.6099L92.9171 84.5697C96.3157 82.7782 99.2795 81.216 101.261 78.1345C103.109 75.2598 104.053 71.1545 103.999 64.4779C103.994 63.8908 103.71 63.3344 103.221 62.9519C102.731 62.5695 102.084 62.3985 101.445 62.483C99.6125 62.7255 98.1767 62.6607 96.9151 62.2539C95.6422 61.8434 94.4527 61.0551 93.1814 59.7079C92.7588 59.2601 92.143 59.0017 91.4943 59Z" stroke="#E2A412" stroke-width="3" stroke-linejoin="round"/>
<path d="M78.9315 68.8249V62.057L85.6814 62.2181L91.5004 58.1896L97.5521 62.4509L104.069 62.057V68.8249C104.069 83.8109 91.5004 85.9595 91.5004 85.9595C91.5004 85.9595 78.9315 83.8109 78.9315 68.8249Z" fill="#FFE8A3"/>
<path d="M95.6091 84.7778C100.553 82.2398 103.827 74.8808 103.827 69.0666V62.2987L97.5517 62.4509L91.5 58.4313V86.4697L95.6091 84.7778Z" fill="#FFD65C"/>
<path fill-rule="evenodd" clip-rule="evenodd" d="M91.4933 59C90.8446 58.9983 90.2272 59.2536 89.8018 59.6993C88.547 61.0139 87.3719 61.8047 86.1063 62.2254C84.8446 62.6447 83.4033 62.7257 81.5526 62.483C80.9146 62.3994 80.2679 62.5708 79.7791 62.9533C79.2903 63.3357 79.0071 63.8918 79.0022 64.4784C78.9476 71.1547 79.8917 75.2599 81.7401 78.1345C83.7215 81.216 86.6853 82.7782 90.0838 84.5697L90.1617 84.6107L90.1652 84.6126L90.1666 84.6133L90.3807 84.7262C91.073 85.0913 91.927 85.0913 92.6192 84.7262L92.834 84.613L92.8348 84.6126L92.8391 84.6103L92.8398 84.6099L92.9162 84.5697C96.3147 82.7782 99.2785 81.216 101.26 78.1345C103.108 75.2598 104.052 71.1545 103.998 64.4779C103.993 63.8908 103.709 63.3344 103.22 62.9519C102.73 62.5695 102.083 62.3985 101.444 62.483C99.6115 62.7255 98.1758 62.6607 96.9141 62.2539C95.6412 61.8434 94.4517 61.0551 93.1804 59.7079C92.7578 59.2601 92.142 59.0017 91.4933 59Z" stroke="#E2A412" stroke-width="3.75" stroke-linejoin="round"/>
<path d="M86.251 71.7144L89.9732 75.5896L96.601 68.6896" stroke="#C18010" stroke-width="3" stroke-linecap="round" stroke-linejoin="round"/>
<path d="M114.566 70.8576H118.168C118.828 70.8576 119.369 71.3979 119.369 72.0583C119.369 72.7187 118.828 73.259 118.168 73.259H114.566C113.906 73.259 113.365 72.7187 113.365 72.0583C113.365 71.3979 113.906 70.8576 114.566 70.8576Z" fill="#CCCCCC"/>
<path d="M115.766 60.0514C116.072 60.0514 116.379 60.1715 116.613 60.4056C117.081 60.8739 117.081 61.6363 116.613 62.1046L114.211 64.5059C113.743 64.9742 112.981 64.9742 112.512 64.5059C112.044 64.0377 112.044 63.2752 112.512 62.807L114.914 60.4056C115.148 60.1715 115.454 60.0514 115.76 60.0514H115.766Z" fill="#CCCCCC"/>
<path d="M113.372 79.2632C113.065 79.2632 112.759 79.3833 112.525 79.6174C112.057 80.0857 112.057 80.8481 112.525 81.3164L114.926 83.7177C115.395 84.186 116.157 84.186 116.625 83.7177C117.094 83.2495 117.094 82.487 116.625 82.0188L114.224 79.6174C113.99 79.3833 113.684 79.2632 113.378 79.2632H113.372Z" fill="#CCCCCC"/>
<circle cx="58.5" cy="32.5" r="1.5" fill="#96E38A"/>
<circle cx="48.5" cy="43.5" r="1.5" fill="#63C853"/>
<circle cx="54.5" cy="47.5" r="1.5" fill="#63C853"/>
<circle cx="74.5" cy="55.5" r="1.5" fill="#4CBA3C"/>
<path d="M57 56L54 59" stroke="#4CBA3C" stroke-width="2" stroke-linecap="round"/>
<path d="M54 56L57 59" stroke="#4CBA3C" stroke-width="2" stroke-linecap="round"/>
<path d="M79 47L76 50" stroke="#4CBA3C" stroke-width="2" stroke-linecap="round"/>
<path d="M76 47L79 50" stroke="#4CBA3C" stroke-width="2" stroke-linecap="round"/>
<path d="M53 34L50 37" stroke="#96E38A" stroke-width="2" stroke-linecap="round"/>
<path d="M50 34L53 37" stroke="#96E38A" stroke-width="2" stroke-linecap="round"/>
</g>
<defs>
<radialGradient id="paint0_angular_4953_10559" cx="0" cy="0" r="1" gradientUnits="userSpaceOnUse" gradientTransform="translate(62 46) rotate(125.838) scale(22.2036)">
<stop offset="0.239583" stop-color="#288419"/>
<stop offset="0.526042" stop-color="#77CB6B"/>
<stop offset="0.526142" stop-color="#288419"/>
</radialGradient>
<clipPath id="clip0_4953_10559">
<rect width="100" height="82.6667" fill="white" transform="translate(21.334 7.66663)"/>
</clipPath>
</defs>
</svg>

<svg fill="none" viewBox="0 0 128 96" xmlns="http://www.w3.org/2000/svg">
  <path fill="#888" d="m105.629 38.2 1.542-.4a.875.875 0 0 0 .629-.629l.4-1.543A.84.84 0 0 1 109 35c.4 0 .743.286.8.628l.4 1.543a.875.875 0 0 0 .629.629l1.542.4c.4.114.629.457.629.8 0 .4-.286.743-.629.8l-1.542.4a.875.875 0 0 0-.629.628l-.4 1.543a.84.84 0 0 1-.8.629c-.4 0-.743-.286-.8-.629l-.4-1.543a.875.875 0 0 0-.629-.628l-1.542-.4A.842.842 0 0 1 105 39c0-.4.286-.743.629-.8Zm-89.686-6.4 2.314-.6c.429-.086.857-.514.943-.943l.6-2.314c.171-.6.686-.943 1.2-.943.6 0 1.114.428 1.2.943l.6 2.314c.086.429.514.857.943.943l2.314.6c.6.171.943.686.943 1.2 0 .6-.429 1.114-.943 1.2l-2.314.6c-.429.086-.857.514-.943.943l-.6 2.314c-.171.6-.686.943-1.2.943-.6 0-1.114-.429-1.2-.943l-.6-2.314c-.086-.429-.514-.857-.943-.943l-2.314-.6c-.6-.172-.943-.686-.943-1.2 0-.6.429-1.114.943-1.2ZM.629 53.2l1.542-.4a.876.876 0 0 0 .629-.629l.4-1.543A.841.841 0 0 1 4 50c.4 0 .743.286.8.628l.4 1.543a.876.876 0 0 0 .629.629l1.542.4c.4.114.629.457.629.8 0 .4-.286.743-.629.8l-1.542.4a.875.875 0 0 0-.629.628l-.4 1.543A.841.841 0 0 1 4 58c-.4 0-.743-.286-.8-.629l-.4-1.543a.875.875 0 0 0-.629-.628L.63 54.8A.841.841 0 0 1 0 54c0-.4.286-.743.629-.8ZM126.5 52c-.825 0-1.5-.675-1.5-1.5s.675-1.5 1.5-1.5 1.5.675 1.5 1.5-.675 1.5-1.5 1.5ZM23 70c-1.1 0-2-.9-2-2s.9-2 2-2 2 .9 2 2-.9 2-2 2Z" opacity=".2"/>
  <g clip-path="url(#Radar-128_svg__a)">
    <path fill="#63C853" d="M36 35c0-8.284 6.716-15 15-15h26c8.284 0 15 6.716 15 15v26c0 8.284-6.716 15-15 15H51c-8.284 0-15-6.716-15-15V35Z"/>
    <path fill="#399F29" d="M76.75 16h-26C40.257 16 32 24.507 32 35v26c0 10.493 8.257 19 18.75 19h20.18a3.378 3.378 0 0 0 3.32-4l-2.5-23h20a4 4 0 0 0 4-4V35c0-10.493-8.507-19-19-19Z"/>
    <rect width="56" height="56" x="34" y="18" fill="#B3F1AA" stroke="#4CBA3C" stroke-width="4" rx="12.667"/>
    <circle cx="62" cy="46" r="23" fill="#288419"/>
    <path fill="#B3F1AA" d="M85 23 62 46 33.5 23H85Z" opacity=".1"/>
    <path fill="#B3F1AA" d="M85 23 62 46 45 23h40Z" opacity=".1"/>
    <path fill="#B3F1AA" d="M85 23 62 46l-9-23h32Z" opacity=".1"/>
    <path fill="#B3F1AA" d="M85 23 62 46l-2-23h25Z" opacity=".1"/>
    <path fill="#B3F1AA" d="M85 23 62 46l5-23h18Z" opacity=".1"/>
    <path fill="#B3F1AA" d="M85 23 62 46l13-23h10Z" opacity=".1"/>
    <path fill="#288419" fill-rule="evenodd" d="M50.797 66.092C45.44 61.88 42 55.342 42 48c0-12.703 10.297-23 23-23 4.067 0 7.888 1.056 11.204 2.908A22.901 22.901 0 0 0 62 23c-12.703 0-23 10.297-23 23 0 8.635 4.759 16.159 11.797 20.092Z" clip-rule="evenodd"/>
    <path fill="#D9D9D9" fill-rule="evenodd" stroke="#FAFAFA" stroke-linejoin="round" stroke-width="12" d="M91.493 59a2.332 2.332 0 0 0-1.691.7c-1.255 1.314-2.43 2.105-3.696 2.525-1.261.42-2.703.5-4.553.258a2.387 2.387 0 0 0-1.774.47c-.489.383-.772.939-.777 1.525-.054 6.677.89 10.782 2.738 13.657 1.982 3.081 4.945 4.643 8.344 6.435l.078.04.003.003h.002l.214.113a2.424 2.424 0 0 0 2.238 0l.215-.113.005-.003.077-.04c3.399-1.792 6.362-3.354 8.344-6.435 1.848-2.875 2.792-6.98 2.738-13.657-.005-.587-.289-1.144-.778-1.526a2.39 2.39 0 0 0-1.776-.469c-1.832.242-3.268.178-4.53-.23-1.273-.41-2.462-1.198-3.734-2.545A2.33 2.33 0 0 0 91.493 59Z" clip-rule="evenodd"/>
    <path stroke="#E2A412" stroke-linejoin="round" stroke-width="3" d="M91.493 59a2.332 2.332 0 0 0-1.691.7c-1.255 1.314-2.43 2.105-3.696 2.525-1.261.42-2.703.5-4.553.258a2.387 2.387 0 0 0-1.774.47c-.489.383-.772.939-.777 1.525-.054 6.677.89 10.782 2.738 13.657 1.982 3.081 4.945 4.643 8.344 6.435l.078.04.003.003h.002l.214.113a2.424 2.424 0 0 0 2.238 0l.215-.113.005-.003.077-.04c3.399-1.792 6.362-3.354 8.344-6.435 1.848-2.875 2.792-6.98 2.738-13.657-.005-.587-.289-1.144-.778-1.526a2.39 2.39 0 0 0-1.776-.469c-1.832.242-3.268.178-4.53-.23-1.273-.41-2.462-1.198-3.734-2.545A2.33 2.33 0 0 0 91.493 59Z" clip-rule="evenodd"/>
    <path fill="#FFE8A3" d="M78.931 68.825v-6.768l6.75.161L91.5 58.19l6.052 4.26 6.517-.393v6.768c0 14.986-12.57 17.135-12.57 17.135s-12.567-2.15-12.567-17.135Z"/>
    <path fill="#FFD65C" d="M95.61 84.778c4.943-2.538 8.217-9.897 8.217-15.711v-6.768l-6.275.152-6.052-4.02V86.47l4.11-1.692Z"/>
    <path stroke="#E2A412" stroke-linejoin="round" stroke-width="3.75" d="M91.493 59a2.332 2.332 0 0 0-1.691.7c-1.255 1.314-2.43 2.105-3.696 2.525-1.261.42-2.703.5-4.553.258a2.387 2.387 0 0 0-1.774.47c-.489.383-.772.939-.777 1.525-.054 6.677.89 10.782 2.738 13.657 1.982 3.081 4.945 4.643 8.344 6.435l.078.04.003.003h.002l.214.113a2.424 2.424 0 0 0 2.238 0l.215-.113.005-.003.077-.04c3.399-1.792 6.362-3.354 8.344-6.435 1.848-2.875 2.792-6.98 2.738-13.657-.005-.587-.289-1.144-.778-1.526a2.39 2.39 0 0 0-1.776-.469c-1.832.242-3.268.178-4.53-.23-1.273-.41-2.462-1.198-3.734-2.545A2.33 2.33 0 0 0 91.493 59Z" clip-rule="evenodd"/>
    <path stroke="#C18010" stroke-linecap="round" stroke-linejoin="round" stroke-width="3" d="m86.25 71.715 3.722 3.875 6.628-6.9"/>
    <path fill="#CCC" d="M114.565 70.858h3.602c.661 0 1.201.54 1.201 1.2 0 .66-.54 1.2-1.201 1.2h-3.602c-.66 0-1.2-.54-1.2-1.2 0-.66.54-1.2 1.2-1.2Zm1.201-10.807a1.203 1.203 0 0 1 .847 2.053l-2.402 2.402a1.203 1.203 0 0 1-1.699 0 1.203 1.203 0 0 1 0-1.7l2.402-2.4c.234-.234.54-.355.846-.355h.006Zm-2.395 19.212a1.202 1.202 0 0 0-.846 2.053l2.401 2.402a1.203 1.203 0 0 0 1.699 0 1.203 1.203 0 0 0 0-1.7l-2.402-2.4a1.195 1.195 0 0 0-.846-.355h-.006Z"/>
    <circle cx="58.5" cy="32.5" r="1.5" fill="#96E38A"/>
    <circle cx="48.5" cy="43.5" r="1.5" fill="#63C853"/>
    <circle cx="54.5" cy="47.5" r="1.5" fill="#63C853"/>
    <circle cx="74.5" cy="55.5" r="1.5" fill="#4CBA3C"/>
    <path stroke="#4CBA3C" stroke-linecap="round" stroke-width="2" d="m57 56-3 3m0-3 3 3m22-12-3 3m0-3 3 3"/>
    <path stroke="#96E38A" stroke-linecap="round" stroke-width="2" d="m53 34-3 3m0-3 3 3"/>
  </g>
  <defs>
    <clipPath id="Radar-128_svg__a">
      <path fill="#fff" d="M21.334 7.667h100v82.667h-100z"/>
    </clipPath>
  </defs>
</svg>
